public/pieces/spatial/wK.svg

<svg height="700pt" viewBox="0 0 933.333 933.333" width="700pt" xmlns="http://www.w3.org/2000/svg" xmlns:xlink="http://www.w3.org/1999/xlink"><linearGradient id="a"><stop offset="0" stop-color="#fff"/><stop offset="1" stop-color="#bfd3d7"/></linearGradient><linearGradient id="b" gradientUnits="userSpaceOnUse" x1="182.28659317078" x2="780.77740770803" xlink:href="#a" y1="821.82498123873" y2="824.23456802325"/><linearGradient id="c" gradientUnits="userSpaceOnUse" x1="143.20753154653" x2="746.51754183624" xlink:href="#a" y1="233.26064307625" y2="770.99699923125"/><linearGradient id="d" gradientUnits="userSpaceOnUse" x1="392.75899643298" x2="570.78958381335" xlink:href="#a" y1="145.81589769226" y2="292.80186726961"/><g stroke="#000" stroke-linecap="round" stroke-linejoin="round"><path d="m493.34766 343.5918v-129.83985h104.71289v-75.45898h-104.71289v-66.132814h-69.60157v66.132814h-87.17382v75.45898h87.17382v129.83985m-2.35836 53.1416c31.21258 112.69935 9.00066 276.09468-65.99906 241.95996-137.19132-62.44007-188.19237-292.18041 30.84375-176.92969-59.33094-121.28653-134.17091-163.98089-195.03711-161.56836-68.98169 2.73421-120.017145 63.40655-110.189451 133.26758 19.372221 137.70914 171.582801 262.11987 179.549611 322.20062m409.32506-.0587c4.98733-68.47566 177.61722-200.39736 183.31674-326.02473 5.64972-126.93961-213.43052-225.25236-309.81836 32.07812 221.54278-118.49588 150.54777 107.24976 40.60156 177.03516-69.35262 44.0197-106.30534-117.67482-72.55607-244.03605m-250.62095 410.86417-39.45189-2v71.94532h483.16016v-71.94532l-32.11913 2" fill="none" stroke-width="35"/><g fill-rule="evenodd" stroke-width="20"><path d="m423.747 72.159496v66.134354h-87.17396v75.45834h87.17396v135.83887h69.60053v-135.83887h104.71274v-75.45834h-104.71274v-66.134354z" fill="url(#d)"/><path d="m543.37829 461.6588c221.54324-118.49612 150.5494 107.24929 40.60297 177.03483-70.8362 44.96138-107.87222-124.68612-70.29376-252.09394l-94.93816 1.14384c35.00837 112.74569 13.65804 286.00409-63.36145 250.9501-137.19159-62.44021-188.19271-292.18056 30.84385-176.9296-126.57294-258.74511-323.724417-159.80521-305.225201-28.30183 20.095741 142.85234 183.137321 271.39506 179.824461 328.66145h409.11106c-6.55443-66.35042 177.36988-202.80354 183.25597-332.54355 5.64974-126.93987-213.4317-225.2523-309.81974 32.0787z" fill="url(#c)"/><path d="m221.35155 801.52142h483.15958v73.944809h-483.15958z" fill="url(#b)"/></g></g></svg>

<?xml version="1.0" encoding="UTF-8" standalone="no"?>
<svg width="700pt" height="700pt" id="king" viewBox="0 0 933.333 933.333" sodipodi:version="0.32" inkscape:version="1.1.2 (0a00cf5339, 2022-02-04)" version="1.0" inkscape:export-filename="/home/maurizio/out/wk.png" inkscape:export-xdpi="90" inkscape:export-ydpi="90" sodipodi:docname="k.svg" xmlns:inkscape="http://www.inkscape.org/namespaces/inkscape" xmlns:sodipodi="http://sodipodi.sourceforge.net/DTD/sodipodi-0.dtd" xmlns:xlink="http://www.w3.org/1999/xlink" xmlns="http://www.w3.org/2000/svg" xmlns:svg="http://www.w3.org/2000/svg" xmlns:rdf="http://www.w3.org/1999/02/22-rdf-syntax-ns#" xmlns:cc="http://creativecommons.org/ns#" xmlns:dc="http://purl.org/dc/elements/1.1/">
  <style id="style-base">
    .base { 
      fill-opacity:1;
      fill-rule:evenodd;
      stroke-miterlimit:4;
      stroke-dasharray:none;
      stroke-linecap:round;
      stroke-linejoin:round;
      stroke-opacity:1
    }
    .shadow {
      stroke:none;
      filter:url(#filterBlur);
    }
  </style>
  <style id="stroke-medium">.stroke-medium {stroke-width: 20; }</style>
  <style id="stroke-boundary">.stroke-boundary {stroke-width: 35; }</style>
  <style id="stroke-color">.stroke-color {stroke: black; }</style>
  <style id="fill-color">.fill-color {fill: white; }</style>
  <defs id="defs36222">
    <linearGradient inkscape:collect="always" id="fillGradient">
      <stop style="stop-color: white; stop-opacity: 1;" offset="0" id="stop0"/>
      <stop style="stop-color: rgb(191, 211, 215); stop-opacity: 1;" offset="1" id="stop1"/>
    </linearGradient>
    <linearGradient inkscape:collect="always" xlink:href="#fillGradient" id="base-gradient" gradientUnits="userSpaceOnUse" x1="163.1134" y1="776.63849" x2="702.69696" y2="778.81091" gradientTransform="matrix(1.1091717,0,0,1.1091717,1.3658255,-39.600453)"/>
    <linearGradient inkscape:collect="always" xlink:href="#fillGradient" id="main-gradient" gradientUnits="userSpaceOnUse" x1="150.07878" y1="255.25356" x2="694.0072" y2="740.0625" gradientTransform="matrix(1.1091717,0,0,1.1091717,-23.255604,-49.859382)"/>
    <linearGradient inkscape:collect="always" xlink:href="#fillGradient" id="cross-gradient" x1="375.06781" y1="176.41568" x2="535.5755" y2="308.93436" gradientUnits="userSpaceOnUse" gradientTransform="matrix(1.1091717,0,0,1.1091717,-23.255604,-49.859382)"/>
    
  </defs>
  <sodipodi:namedview id="namedview325" pagecolor="#ffffff" bordercolor="#666666" borderopacity="1.0" inkscape:pageopacity="0.0" inkscape:pageshadow="2" inkscape:zoom="0.32549009" inkscape:cx="-379.42783" inkscape:cy="227.34947" inkscape:current-layer="king" inkscape:document-units="px" inkscape:window-width="1846" inkscape:window-height="1016" inkscape:window-x="0" inkscape:window-y="0" inkscape:showpageshadow="2" inkscape:pagecheckerboard="0" inkscape:deskcolor="#d1d1d1" showgrid="false" inkscape:window-maximized="1"/>
  <metadata id="metadata36225">
    <rdf:RDF>
      <cc:Work rdf:about="">
        <dc:format>image/svg+xml</dc:format>
        <dc:type rdf:resource="http://purl.org/dc/dcmitype/StillImage"/>
        <dc:creator>
          <cc:Agent>
            <dc:title>Maurizio Monge</dc:title>
          </cc:Agent>
        </dc:creator>
        <dc:rights>
          <cc:Agent>
            <dc:title>Maurizio Monge</dc:title>
          </cc:Agent>
        </dc:rights>
        <cc:license rdf:resource="http://creativecommons.org/licenses/GPL/2.0/"/>
      </cc:Work>
      <cc:License rdf:about="http://creativecommons.org/licenses/GPL/2.0/">
        <cc:permits rdf:resource="http://web.resource.org/cc/Reproduction"/>
        <cc:permits rdf:resource="http://web.resource.org/cc/Distribution"/>
        <cc:requires rdf:resource="http://web.resource.org/cc/Notice"/>
        <cc:permits rdf:resource="http://web.resource.org/cc/DerivativeWorks"/>
        <cc:requires rdf:resource="http://web.resource.org/cc/ShareAlike"/>
        <cc:requires rdf:resource="http://web.resource.org/cc/SourceCode"/>
      </cc:License>
    </rdf:RDF>
  </metadata>
  
  <path id="boundary" class="base stroke-color stroke-boundary" style="fill:none" d="M 493.34766,343.5918 V 213.75195 H 598.06055 V 138.29297 H 493.34766 V 72.160156 h -69.60157 v 66.132814 h -87.17382 v 75.45898 h 87.17382 V 343.5918 m -2.35836,53.1416 c 31.21258,112.69935 9.00066,276.09468 -65.99906,241.95996 C 218.19735,576.25329 167.1963,346.51295 386.23242,461.76367 326.90148,340.47714 252.06151,297.78278 191.19531,300.19531 122.21362,302.92952 71.178165,363.60186 81.005859,433.46289 100.37808,571.17203 252.58866,695.58276 260.55547,755.66351 m 409.32506,-0.0587 C 674.86786,687.12915 847.49775,555.20745 853.19727,429.58008 858.84699,302.64047 639.76675,204.32772 543.37891,461.6582 764.92169,343.16232 693.92668,568.90796 583.98047,638.69336 514.62785,682.71306 477.67513,521.01854 511.4244,394.65731 m -250.62095,410.86417 -39.45189,-2 v 71.94532 h 483.16016 v -71.94532 l -32.11913,2" sodipodi:nodetypes="cccccccccccccscssccccsccccccc"/>
  <path class="base stroke-color stroke-medium" style="fill:url(#cross-gradient)" d="m 423.747,72.159496 v 66.134354 h -87.17396 v 75.45834 H 423.747 v 135.83887 h 69.60053 V 213.75219 H 598.06027 V 138.29385 H 493.34753 V 72.159496 Z" id="cross"/>
  <path class="base stroke-color stroke-medium" style="fill:url(#main-gradient)" d="M 543.37829,461.6588 C 764.92153,343.16268 693.92769,568.90809 583.98126,638.69363 513.14506,683.65501 476.10904,514.00751 513.6875,386.59969 l -94.93816,1.14384 c 35.00837,112.74569 13.65804,286.00409 -63.36145,250.9501 C 218.1963,576.25342 167.19518,346.51307 386.23174,461.76403 259.6588,203.01892 62.507323,301.95882 81.006539,433.4622 101.10228,576.31454 264.14386,704.85726 260.831,762.12365 H 669.94206 C 663.38763,695.77323 847.31194,559.32011 853.19803,429.5801 858.84777,302.64023 639.76633,204.3278 543.37829,461.6588 Z" id="main" sodipodi:nodetypes="csccscsccsc"/>
  <rect class="base stroke-color stroke-medium" style="fill:url(#base-gradient)" id="base" width="483.15958" height="73.944809" x="221.35155" y="801.52142"/>
</svg>
